X: 323
T:Bonny Jane. JaW.322
M:C
L:1/8
Q:150
S:James Winder Ms, Lancashire, 1835-41
R:Air
O:England
A:Wyresdale,Lancashire
H:1/8
Z:vmp.Chris Partington, Aug 2004
K:G
B>A|(G2G2G2)(F>E)|(D2D2D2)E>F|(G2G2G2)A2|(B2B2B2)(AG)|!
(c2c2c2)(BA)|(B2B2B2)(AG)|(A2A2) AcBA|(G2E2E2)BA|!
(G2G2G2)FE|(D2D2D2)B,2|C2B,2A,2G,2|g4agd2|!
e2d2c2B2|A2G2e2(dc)|B2A2G4:|!
|:(e>f)|g3ag3b|f2d2d2e2|d2efg2a2|b4a2g2|!
g3ab2a2|g2d2d2g2|d2g2d2g2|d2g2d2B2|!
(c2B2)(A2G2)|G2E2E2B>A|(G2G2G2)F>E|(D2D2D2)B,2|!
C2B,2A,2G,2|g4a2d2|e2d2c2B2|A2G2e2(dc)|B2A2G4:|]
